X:474
T: Women de shuiku jiushihao
N: C2093
O: China, Shanxi Dianxiang
S: I, 287]
N: Han
R: Xiaodiao, Shuiguaxibaotou]
M: 2/4
L: 1/16
K: Bb
cccdcbg2 | f3gd2c2 | bbbcdcag | f8
fd2fdfdf | cdcgb3g | ccccdfag | ff2g
dfdf | gagfg4
c4dfdc | b2ddcdcdcdcd | f2agfdfg | bgbcgffd | c8

